X:1991
T:Five Green Bridges
O:england
M:6/8
L:1/8
Q:150
C:Paul O'Driscoll
R:jig
K:GMin
GAB BA ~B-|B2B ABc|G2B BAG|ABc Bcd|
GAB B2G|Bcd e3|cBA G3|CDE DEF|
G2 B BA ~B-|B2B ABc|~G3 BAG|ABc Bcd|
GAB cBA|G3e3|d3 cBA|BAG FED|
:CDE C2C-|CEF EFG|CDE GFE|D/2E/2DD EFG|
CDE C2C|DEF EF(G|{_A}G)^FG EDC|~F3 DEF:|


